icon_installer/data/icons/scalable/actions/show-dog-symbolic.svg

<?xml version="1.0" encoding="UTF-8"?>
<svg height="16px" viewBox="0 0 16 16" width="16px" xmlns="http://www.w3.org/2000/svg">
    <path d="m 1.8125 0 c -1.003906 0 -1.8125 1.011719 -1.8125 2.265625 v 0.46875 c 0 0.890625 0.40625 1.65625 1 2.027344 v 5.238281 c 0 2.199219 1.800781 4 4 4 h 5.183594 c 0.421875 1.195312 1.550781 1.996094 2.816406 2 c 1.65625 0 3 -1.34375 3 -3 v -9 c 0 -1.65625 -1.34375 -3 -3 -3 h -4.519531 l -0.679688 0.960938 c -0.460937 0.660156 -1.214843 1.050781 -2.019531 1.050781 h -1.792969 c 0.007813 -0.09375 0.011719 -0.183594 0.011719 -0.277344 v -0.46875 c 0 -1.253906 -0.808594 -2.265625 -1.8125 -2.265625 z m 7.707031 3 h 0.480469 v 9 h -5 c -1.117188 0 -2 -0.882812 -2 -2 v -4.988281 h 2.78125 c 1.453125 0 2.816406 -0.707031 3.65625 -1.898438 z m -1.613281 2 c -0.503906 0 -0.90625 0.402344 -0.90625 0.90625 v 0.1875 c 0 0.503906 0.402344 0.90625 0.90625 0.90625 h 0.1875 c 0.503906 0 0.90625 -0.402344 0.90625 -0.90625 v -0.1875 c 0 -0.503906 -0.402344 -0.90625 -0.90625 -0.90625 z m 0 0" fill="#222222"/>
</svg>

<svg xmlns="http://www.w3.org/2000/svg" width="16" height="16"><path fill="#222" d="M1.813 0C.808 0 0 1.012 0 2.266v.468c0 .891.406 1.657 1 2.028V10c0 2.2 1.8 4 4 4h5.184A2.998 2.998 0 0 0 13 16a3 3 0 0 0 3-3V4a3 3 0 0 0-3-3H8.48l-.68.96a2.46 2.46 0 0 1-2.019 1.052H3.988A3.23 3.23 0 0 0 4 2.734v-.468C4 1.012 3.191 0 2.187 0zM9.52 3H10v9H5c-1.117 0-2-.883-2-2V5.012h2.781a4.473 4.473 0 0 0 3.657-1.899zM7.906 5A.902.902 0 0 0 7 5.906v.188c0 .504.402.906.906.906h.188A.902.902 0 0 0 9 6.094v-.188A.902.902 0 0 0 8.094 5zm0 0"/></svg>
